icon/pk/picture.svg

<svg viewBox="0 0 48 48" fill="none" xmlns="http://www.w3.org/2000/svg" height="1em" width="1em">
  <path d="M39 6H9C7.34315 6 6 7.34315 6 9V39C6 40.6569 7.34315 42 9 42H39C40.6569 42 42 40.6569 42 39V9C42 7.34315 40.6569 6 39 6Z" stroke="black" stroke-width="4" stroke-linecap="round" stroke-linejoin="round"/>
  <path d="M18 23C20.7614 23 23 20.7614 23 18C23 15.2386 20.7614 13 18 13C15.2386 13 13 15.2386 13 18C13 20.7614 15.2386 23 18 23Z" fill="#2F88FF" stroke="black" stroke-width="4" stroke-linecap="round" stroke-linejoin="round"/>
  <path d="M27.7901 26.2194C28.6064 25.1269 30.2528 25.1538 31.0329 26.2725L39.8077 38.8561C40.7322 40.182 39.7835 42.0001 38.1671 42.0001H16L27.7901 26.2194Z" stroke="black" stroke-width="4" stroke-linecap="round" stroke-linejoin="round"/>
</svg>

<svg width="48" height="48" fill="none" xmlns="http://www.w3.org/2000/svg"><path d="M39 6H9a3 3 0 0 0-3 3v30a3 3 0 0 0 3 3h30a3 3 0 0 0 3-3V9a3 3 0 0 0-3-3Z" stroke="#000" stroke-width="4" stroke-linecap="round" stroke-linejoin="round"/><path d="M18 23a5 5 0 1 0 0-10 5 5 0 0 0 0 10Z" fill="#2F88FF" stroke="#000" stroke-width="4" stroke-linecap="round" stroke-linejoin="round"/><path d="M27.79 26.22a2 2 0 0 1 3.243.053l8.775 12.583c.924 1.326-.025 3.144-1.64 3.144H16l11.79-15.78Z" stroke="#000" stroke-width="4" stroke-linecap="round" stroke-linejoin="round"/></svg>
